X:98
M:6/8
L:1/8
Q:3/8=110
K:G
|:B/d/|e2 G G2 c/e/|d2 G G2 c|c2B A2 G|FGA DG/B/d|\
e2 G G2 c/e/|d2 G G2 c|c2B AGF|G3-G2:|

